public/assets/img/instagramAlt.svg

<svg xmlns="http://www.w3.org/2000/svg" width="32" height="32" viewBox="0 0 256 256"><path d="M176 32H80a48 48 0 0 0-48 48v96a48 48 0 0 0 48 48h96a48 48 0 0 0 48-48V80a48 48 0 0 0-48-48zm-48 136a40 40 0 1 1 40-40 40 40 0 0 1-40 40z" fill="#d8dee9" opacity=".25"/><path fill="#d8dee9" d="M176 24H80a56.06 56.06 0 0 0-56 56v96a56.06 56.06 0 0 0 56 56h96a56.06 56.06 0 0 0 56-56V80a56.06 56.06 0 0 0-56-56zm40 152a40 40 0 0 1-40 40H80a40 40 0 0 1-40-40V80a40 40 0 0 1 40-40h96a40 40 0 0 1 40 40zm-88-96a48 48 0 1 0 48 48 48.05 48.05 0 0 0-48-48zm0 80a32 32 0 1 1 32-32 32 32 0 0 1-32 32zm64-84a12 12 0 1 1-12-12 12 12 0 0 1 12 12z"/></svg>

<svg xmlns="http://www.w3.org/2000/svg" width="32" height="32" viewBox="0 0 256 256" focusable="false">
  <path
    d="M176,32H80A48,48,0,0,0,32,80v96a48,48,0,0,0,48,48h96a48,48,0,0,0,48-48V80A48,48,0,0,0,176,32ZM128,168a40,40,0,1,1,40-40A40,40,0,0,1,128,168Z"
    fill="#d8dee9"
    opacity="0.25"
  ></path>
  <path
    fill="#d8dee9"
    id="instagram-solid"
    d="M176,24H80A56.06,56.06,0,0,0,24,80v96a56.06,56.06,0,0,0,56,56h96a56.06,56.06,0,0,0,56-56V80A56.06,56.06,0,0,0,176,24Zm40,152a40,40,0,0,1-40,40H80a40,40,0,0,1-40-40V80A40,40,0,0,1,80,40h96a40,40,0,0,1,40,40ZM128,80a48,48,0,1,0,48,48A48.05,48.05,0,0,0,128,80Zm0,80a32,32,0,1,1,32-32A32,32,0,0,1,128,160Zm64-84a12,12,0,1,1-12-12A12,12,0,0,1,192,76Z"
  ></path>
</svg>
